X: 109
T:Old Man's Delight Jig
M:6/8
L:1/8
Z:abc by Bruce Osborne - bosborne@kos.net
K:A
f2|:ecA A2 c|BGE EGE|ecA Ace|fba gfe|!
ecA ABc|BGE E2 E|FGA BGE|A4:|!
|:e2|cAc ece|fdf e2 a/f/|ecA ABc|BGE E2 -E/E/|!
cAc ece|fdf e2 a/f/|ecA EGB|A4:|!
